public/icon_interview.svg

<svg fill="none" height="56" viewBox="0 0 57 56" width="57" xmlns="http://www.w3.org/2000/svg" xmlns:xlink="http://www.w3.org/1999/xlink"><radialGradient id="a" cx="0" cy="0" gradientTransform="matrix(53.0390865 -44.88278806 44.26426977 52.30816833 1.96875 52.4219)" gradientUnits="userSpaceOnUse" r="1"><stop offset="0" stop-color="#5bcaff"/><stop offset="1" stop-color="#06f"/></radialGradient><path clip-rule="evenodd" d="m7.82812 44.5c-3.89062 0-5.85937-1.8984-5.85937-5.8594v-25.2422c0-3.9609 1.96875-5.85934 5.85937-5.85934h41.32028c3.8672 0 5.8594 1.89844 5.8594 5.85934v25.2422c0 3.961-1.9922 5.8594-5.8594 5.8594h-13.7578l.6094 4.1953h2.6719c1.0312 0 1.875.8438 1.875 1.875 0 1.0078-.8438 1.8516-1.875 1.8516h-20.1563c-1.0312 0-1.875-.8438-1.875-1.8516 0-1.0312.8438-1.875 1.875-1.875h2.4375l.6328-4.1953zm-2.03906-30.9844v25.0078c0 1.5469.67969 2.1563 2.15625 2.1563h41.06249c1.5 0 2.1797-.6094 2.1797-2.1563v-25.0078c0-1.5468-.6797-2.1562-2.1797-2.1562h-41.06249c-1.47656 0-2.15625.6094-2.15625 2.1562zm29.21094 10.9844c0 3.5899-2.9101 6.5-6.5 6.5s-6.5-2.9101-6.5-6.5 2.9101-6.5 6.5-6.5 6.5 2.9101 6.5 6.5zm-17.9148 14.5c.7103-3.9463 5.5691-7 11.4574-7s10.7471 3.0537 11.4574 7z" fill="url(#a)" fill-rule="evenodd"/></svg>

<svg width="57" height="56" viewBox="0 0 57 56" fill="none" xmlns="http://www.w3.org/2000/svg">
<path fill-rule="evenodd" clip-rule="evenodd" d="M7.82812 44.5C3.9375 44.5 1.96875 42.6016 1.96875 38.6406V13.3984C1.96875 9.4375 3.9375 7.53906 7.82812 7.53906H49.1484C53.0156 7.53906 55.0078 9.4375 55.0078 13.3984V38.6406C55.0078 42.6016 53.0156 44.5 49.1484 44.5H35.3906L36 48.6953H38.6719C39.7031 48.6953 40.5469 49.5391 40.5469 50.5703C40.5469 51.5781 39.7031 52.4219 38.6719 52.4219H18.5156C17.4844 52.4219 16.6406 51.5781 16.6406 50.5703C16.6406 49.5391 17.4844 48.6953 18.5156 48.6953H20.9531L21.5859 44.5H7.82812ZM5.78906 13.5156V38.5234C5.78906 40.0703 6.46875 40.6797 7.94531 40.6797H49.0078C50.5078 40.6797 51.1875 40.0703 51.1875 38.5234V13.5156C51.1875 11.9688 50.5078 11.3594 49.0078 11.3594H7.94531C6.46875 11.3594 5.78906 11.9688 5.78906 13.5156ZM35 24.5C35 28.0899 32.0899 31 28.5 31C24.9101 31 22 28.0899 22 24.5C22 20.9101 24.9101 18 28.5 18C32.0899 18 35 20.9101 35 24.5ZM17.0852 39C17.7955 35.0537 22.6543 32 28.5426 32C34.4309 32 39.2897 35.0537 40 39H17.0852Z" fill="url(#paint0_radial)"/>
<defs>
<radialGradient id="paint0_radial" cx="0" cy="0" r="1" gradientUnits="userSpaceOnUse" gradientTransform="translate(1.96875 52.4219) rotate(-40.2386) scale(69.481 68.5235)">
<stop stop-color="#5BCAFF"/>
<stop offset="1" stop-color="#0066FF"/>
</radialGradient>
</defs>
</svg>
